material/.icons/material/blur-off.svg

<svg xmlns="http://www.w3.org/2000/svg" viewBox="0 0 24 24"><path d="M3 13.5a.5.5 0 00-.5.5.5.5 0 00.5.5.5.5 0 00.5-.5.5.5 0 00-.5-.5M6 17a1 1 0 00-1 1 1 1 0 001 1 1 1 0 001-1 1 1 0 00-1-1m4 3.5a.5.5 0 00-.5.5.5.5 0 00.5.5.5.5 0 00.5-.5.5.5 0 00-.5-.5m-7-11a.5.5 0 00-.5.5.5.5 0 00.5.5.5.5 0 00.5-.5.5.5 0 00-.5-.5M6 13a1 1 0 00-1 1 1 1 0 001 1 1 1 0 001-1 1 1 0 00-1-1m15 .5a.5.5 0 00-.5.5.5.5 0 00.5.5.5.5 0 00.5-.5.5.5 0 00-.5-.5M10 17a1 1 0 00-1 1 1 1 0 001 1 1 1 0 001-1 1 1 0 00-1-1M2.5 5.27l3.78 3.78L6 9a1 1 0 00-1 1 1 1 0 001 1 1 1 0 001-1c0-.1-.03-.19-.06-.28l2.81 2.81c-.71.11-1.25.73-1.25 1.47a1.5 1.5 0 001.5 1.5c.74 0 1.36-.54 1.47-1.25l2.81 2.81A.875.875 0 0014 17a1 1 0 00-1 1 1 1 0 001 1 1 1 0 001-1c0-.1-.03-.19-.06-.28l3.78 3.78L20 20.23 3.77 4 2.5 5.27M14 20.5a.5.5 0 00-.5.5.5.5 0 00.5.5.5.5 0 00.5-.5.5.5 0 00-.5-.5M18 7a1 1 0 001-1 1 1 0 00-1-1 1 1 0 00-1 1 1 1 0 001 1m0 4a1 1 0 001-1 1 1 0 00-1-1 1 1 0 00-1 1 1 1 0 001 1m0 4a1 1 0 001-1 1 1 0 00-1-1 1 1 0 00-1 1 1 1 0 001 1m-8-8a1 1 0 001-1 1 1 0 00-1-1 1 1 0 00-1 1 1 1 0 001 1m11 3.5a.5.5 0 00.5-.5.5.5 0 00-.5-.5.5.5 0 00-.5.5.5.5 0 00.5.5m-11-7a.5.5 0 00.5-.5.5.5 0 00-.5-.5.5.5 0 00-.5.5.5.5 0 00.5.5m4 0a.5.5 0 00.5-.5.5.5 0 00-.5-.5.5.5 0 00-.5.5.5.5 0 00.5.5m-.2 8h.2a1.5 1.5 0 001.5-1.5A1.5 1.5 0 0014 8.5a1.5 1.5 0 00-1.5 1.5v.2c.11.67.63 1.19 1.3 1.3M14 7a1 1 0 001-1 1 1 0 00-1-1 1 1 0 00-1 1 1 1 0 001 1z"/></svg>

<?xml version="1.0" encoding="UTF-8"?><!DOCTYPE svg PUBLIC "-//W3C//DTD SVG 1.1//EN" "http://www.w3.org/Graphics/SVG/1.1/DTD/svg11.dtd"><svg xmlns="http://www.w3.org/2000/svg" xmlns:xlink="http://www.w3.org/1999/xlink" version="1.1" id="mdi-blur-off" width="24" height="24" viewBox="0 0 24 24"><path d="M3,13.5A0.5,0.5 0 0,0 2.5,14A0.5,0.5 0 0,0 3,14.5A0.5,0.5 0 0,0 3.5,14A0.5,0.5 0 0,0 3,13.5M6,17A1,1 0 0,0 5,18A1,1 0 0,0 6,19A1,1 0 0,0 7,18A1,1 0 0,0 6,17M10,20.5A0.5,0.5 0 0,0 9.5,21A0.5,0.5 0 0,0 10,21.5A0.5,0.5 0 0,0 10.5,21A0.5,0.5 0 0,0 10,20.5M3,9.5A0.5,0.5 0 0,0 2.5,10A0.5,0.5 0 0,0 3,10.5A0.5,0.5 0 0,0 3.5,10A0.5,0.5 0 0,0 3,9.5M6,13A1,1 0 0,0 5,14A1,1 0 0,0 6,15A1,1 0 0,0 7,14A1,1 0 0,0 6,13M21,13.5A0.5,0.5 0 0,0 20.5,14A0.5,0.5 0 0,0 21,14.5A0.5,0.5 0 0,0 21.5,14A0.5,0.5 0 0,0 21,13.5M10,17A1,1 0 0,0 9,18A1,1 0 0,0 10,19A1,1 0 0,0 11,18A1,1 0 0,0 10,17M2.5,5.27L6.28,9.05L6,9A1,1 0 0,0 5,10A1,1 0 0,0 6,11A1,1 0 0,0 7,10C7,9.9 6.97,9.81 6.94,9.72L9.75,12.53C9.04,12.64 8.5,13.26 8.5,14A1.5,1.5 0 0,0 10,15.5C10.74,15.5 11.36,14.96 11.47,14.25L14.28,17.06C14.19,17.03 14.1,17 14,17A1,1 0 0,0 13,18A1,1 0 0,0 14,19A1,1 0 0,0 15,18C15,17.9 14.97,17.81 14.94,17.72L18.72,21.5L20,20.23L3.77,4L2.5,5.27M14,20.5A0.5,0.5 0 0,0 13.5,21A0.5,0.5 0 0,0 14,21.5A0.5,0.5 0 0,0 14.5,21A0.5,0.5 0 0,0 14,20.5M18,7A1,1 0 0,0 19,6A1,1 0 0,0 18,5A1,1 0 0,0 17,6A1,1 0 0,0 18,7M18,11A1,1 0 0,0 19,10A1,1 0 0,0 18,9A1,1 0 0,0 17,10A1,1 0 0,0 18,11M18,15A1,1 0 0,0 19,14A1,1 0 0,0 18,13A1,1 0 0,0 17,14A1,1 0 0,0 18,15M10,7A1,1 0 0,0 11,6A1,1 0 0,0 10,5A1,1 0 0,0 9,6A1,1 0 0,0 10,7M21,10.5A0.5,0.5 0 0,0 21.5,10A0.5,0.5 0 0,0 21,9.5A0.5,0.5 0 0,0 20.5,10A0.5,0.5 0 0,0 21,10.5M10,3.5A0.5,0.5 0 0,0 10.5,3A0.5,0.5 0 0,0 10,2.5A0.5,0.5 0 0,0 9.5,3A0.5,0.5 0 0,0 10,3.5M14,3.5A0.5,0.5 0 0,0 14.5,3A0.5,0.5 0 0,0 14,2.5A0.5,0.5 0 0,0 13.5,3A0.5,0.5 0 0,0 14,3.5M13.8,11.5H14A1.5,1.5 0 0,0 15.5,10A1.5,1.5 0 0,0 14,8.5A1.5,1.5 0 0,0 12.5,10V10.2C12.61,10.87 13.13,11.39 13.8,11.5M14,7A1,1 0 0,0 15,6A1,1 0 0,0 14,5A1,1 0 0,0 13,6A1,1 0 0,0 14,7Z" /></svg>
